X:1
T:He Is Not Here, But Is Risen!
T:He Is Not Here, But Is Risen!
T:James McGranahan
T:Daniel Webster Whittle, 1885
T:Public Domain Courtesy of the Cyber Hymnal™
T:Public Domain Courtesy of the Cyber Hymnal™
C:James McGranahan
Z:Public Domain
Z:Courtesy of the Cyber Hymnal™
%%score ( 1 2 ) ( 3 4 )
L:1/8
M:4/4
K:G
V:1 treble 
V:2 treble 
V:3 bass 
V:4 bass 
V:1
"^Andantino" [DB]2 | [DB]3 [DB] [CA]2 [=FG]2 | [Ec]4 ([DB]2 [CA]2) | G4 [EA]2 [EA]2 | %4
w: 1.~Oh,|day of aw- ful|sto- ry— *|Je- sus is|
w: 2.~A|wea- ry night of|weep- ing— *|Je- sus is|
w: 3.~A|day in sor- row|dawn- ing— *|Je- sus is|
 [^DB]6 [DB]2 | [EB]3 [EB] [^DA]2 [EG]2 | (d2 c2) ([DB]2 [CA]2) | G4 [^DF]2 [DF]2 | E6 || %9
w: dead! Sad|end to hope of|glo- * ry— *|Je- sus is|dead!|
w: dead! A|night that knew no|sleep- * ing— *|Je- sus is|dead!|
w: dead! A|sad and gloom- y|morn- * ing— *|Je- sus is|dead!|
[M:6/4]"^Refrain""^Allegretto" D2 | D4 D2 D4 D2 | (D2 E2) F2 G4 E2 | E4 E2 E4 E2 | E2 F2 G2 A4 D2 | %14
w: |||||
w: |||||
w: |||||
 [DB]4 [GB]2 [G^c]2 [GB]2 [Gc]2 | [Ge]6 !fermata![Fd]4 [Ad]2 | [Fd]4 [FA]2 [FA]2 [EG]2 [DF]2 | %17
w: |||
w: |||
w: |||
 [^CE]6 !fermata!D4 D2 | [Ac]4 [^GB]2 [Ac]4 [=GB]2 | [FA]4 [^E^G]2 [FA]4 D2 | %20
w: |||
w: |||
w: |||
 [Gd]4 [G^c]2 [Gd]4 [A=c]2 | [GB]4 [G^A]2 [GB]4 [DG]2 | [DG]4 [DG]2 [=FG]2 [FA]2 [FB]2 | %23
w: |||
w: |||
w: |||
 [Ec]6 !fermata![Ge]4 [Ge]2 | [Gd]4 [Gd]2 [Gd]2 [Gc]2 [GB]2 | [FA]6 G4 |] %26
w: |||
w: |||
w: |||
V:2
 x2 | x8 | x8 | (B,2 E2) x4 | x8 | x8 | E4 x4 | (B,2 E2) x4 | E6 ||[M:6/4] D2 | D4 D2 D4 D2 | %11
 D2 E2 F2 G4 E2 | E4 E2 E4 E2 | (E2 F2) G2 A4 D2 | x12 | x12 | x12 | x6 D4 D2 | x12 | x10 D2 | %20
 x12 | x12 | x12 | x12 | x12 | x6 G4 |] %26
V:3
 [G,,G,]2 | [G,,G,]3 [G,,G,] [A,,F,]2 [B,,G,]2 | [C,G,]4 ([D,G,]2 [^D,F,]2) | E,4 [C,E,]2 [C,E,]2 | %4
w: ~|~ ~ ~ ~|~ ~ *|~ ~ ~|
 [B,,F,]6 [B,,F,]2 | [B,,G,]3 [B,,G,] [B,,F,]2 [E,G,]2 | [C,G,]4 [G,,G,]2 [A,,F,]2 | %7
w: ~ ~|~ ~ ~ ~|~ ~ ~|
 (G,2 B,2) [B,,A,]2 [B,,A,]2 | [E,G,]6 ||[M:6/4] D,2 | D,4 D,2 D,4 D,2 | (D,2 E,2) F,2 G,4 E,2 | %12
w: ~ * ~ ~|~|Be-|hold the stone is|rolled * a- way! And|
 E,4 E,2 E,4 E,2 | E,2 F,2 G,2 A,4 [D,D]2 | [G,D]4 [G,D]2 A,2 A,2 A,2 | %15
w: shin- ing ones have|come to say: “He is|not here, but is ris-|
 [A,^C]6 !fermata!D4 [F,D]2 | [A,D]4 [A,D]2 [A,,D]2 [A,,A,]2 [A,,A,]2 | %17
w: en! He is|not here, but is ris-|
 (A,4 G,2) !fermata![D,F,]4 [G,B,]2 | [D,D]4 [D,D]2 [D,D]4 [D,D]2 | [D,D]4 [D,D]2 D4 [F,C]2 | %20
w: en!” * The night|of death is past|and gone— A- rise,|
 [G,B,]4 [G,^A,]2 [G,B,]4 [F,D]2 | [G,D]4 [G,^C]2 [G,D]4 [G,B,]2 | %22
w: and greet the glor-|ious morn! “He is|
 [G,B,]4 [G,B,]2 [B,D]2 [A,C]2 [G,B,]2 | [C,G,]6 !fermata![C,C]4 [^C,^A,]2 | %24
w: not here, but is ris-|en! He is|
 [D,B,]4 [D,B,]2 [D,B,]2 [D,E]2 [D,D]2 | [D,C]6 [G,,G,B,]4 |] %26
w: not here, but is ris-|en!” *|
V:4
 x2 | x8 | x8 | E,4 x4 | x8 | x8 | x8 | B,,4 x4 | x6 ||[M:6/4] D,2 | D,4 D,2 D,4 D,2 | %11
 D,2 E,2 F,2 G,4 E,2 | E,4 E,2 E,4 E,2 | (E,2 F,2) G,2 A,4 x2 | x6 A,2 A,2 A,2 | x6 D4 x2 | x12 | %17
 A,,6 x6 | x12 | x6 (D,2 E,2) x2 | x12 | x12 | x12 | x12 | x12 | x10 |] %26

